src/assets/svgs/refactor/scroll-logo-icon.svg

<svg fill="none" height="27" viewBox="0 0 28 27" width="28" xmlns="http://www.w3.org/2000/svg"><path d="m25.0722 17.7886v-15.45463c-.0213-1.29315-1.0651-2.33397-2.3752-2.33397h-16.33842c-3.52544.0525668-6.35858 2.90169-6.35858 6.39212 0 1.1775.319527 2.18678.809468 3.0699.415382.73598 1.065092 1.42978 1.704142 1.94498.18106.1472.09586.0841.6497.4205.76687.4626 1.64024.6939 1.64024.6939l-.01065 9.2413c.0213.4415.06391.8621.18107 1.251.36213 1.3037 1.2781 2.3025 2.52425 2.7861.5219.1997 1.1077.3364 1.7361.3469l13.04738.0421c2.5988 0 4.7076-2.0817 4.7076-4.6574.0107-1.5245-.7562-2.8912-1.9171-3.7428z" fill="#ffeeda"/><path d="m25.3915 21.6469c-.0533 1.6506-1.4272 2.9753-3.1101 2.9753l-8.9787-.0315c.7136-.8201 1.1503-1.8819 1.1503-3.0384 0-1.8188-1.097-3.0699-1.097-3.0699h8.9361c1.7148 0 3.11 1.3773 3.11 3.0699z" fill="#ebc28e"/><g fill="#101010"><path d="m3.36568 10.1036c-1.03314-.96726-1.7574-2.21835-1.7574-3.70074v-.1577c.08521-2.53372 2.19409-4.57331 4.76095-4.6469h16.33847c.426.02103.7669.3154.7669.74645v13.64629c.3727.0631.5538.1157.9159.2419.2876.1051.6817.3259.6817.3259v-14.21409c-.0213-1.29315-1.0651-2.3339678-2.3752-2.3339678h-16.33842c-3.52544.0525668-6.35858 2.9016878-6.35858 6.3921178 0 2.02908.937279 3.76374 2.47101 4.98334.10651.0841.20236.1892.47929.1892.47929 0 .82012-.3784.79881-.7885-.01065-.3469-.15976-.4731-.38343-.6833z"/><path d="m22.2835 16.8844h-12.81306c-.86272.0106-1.55503.6939-1.55503 1.5455v1.8188c.0213.8411.74556 1.556 1.60829 1.556h.9479v-1.556h-.9479v-1.7767h.5219c1.6189 0 2.8118 1.4824 2.8118 3.0699 0 1.4088-1.2994 3.2065-3.47217 3.0594-1.92781-.1262-2.97159-1.8189-2.97159-3.0594v-15.41262c0-.69388-.57515-1.2616-1.27811-1.2616h-1.27811v1.577h.94793v15.10772c-.05325 3.0699 2.21538 4.6153 4.57988 4.6153l12.90887.0421c2.5988 0 4.7077-2.0816 4.7077-4.6574s-2.1195-4.668-4.7183-4.668zm3.11 4.7626c-.0532 1.6506-1.4272 2.9753-3.11 2.9753l-8.9787-.0316c.7136-.82 1.1503-1.8819 1.1503-3.0383 0-1.8188-1.0971-3.0699-1.0971-3.0699h8.9361c1.7148 0 3.1101 1.3772 3.1101 3.0699z"/><path d="m18.8303 6.72886h-9.66038v-1.577h9.66038c.4367 0 .7988.34694.7988.7885 0 .43104-.3515.7885-.7988.7885z"/><path d="m18.8303 14.1507h-9.66038v-1.577h9.66038c.4367 0 .7988.347.7988.7885 0 .4311-.3515.7885-.7988.7885z"/><path d="m20.5344 10.4398h-11.36448v-1.57701h11.35388c.4367 0 .7988.34694.7988.7885.0106.43101-.3515.78851-.7882.78851z"/></g></svg>

<svg width="28" height="27" viewBox="0 0 28 27" fill="none" xmlns="http://www.w3.org/2000/svg">
<path d="M25.0722 17.7886V2.33397C25.0509 1.04082 24.0071 0 22.697 0H6.35858C2.83314 0.0525668 0 2.90169 0 6.39212C0 7.56962 0.319527 8.5789 0.809468 9.46202C1.22485 10.198 1.87456 10.8918 2.51361 11.407C2.69467 11.5542 2.60947 11.4911 3.16331 11.8275C3.93018 12.2901 4.80355 12.5214 4.80355 12.5214L4.7929 21.7627C4.8142 22.2042 4.85681 22.6248 4.97397 23.0137C5.3361 24.3174 6.25207 25.3162 7.49822 25.7998C8.02012 25.9995 8.60592 26.1362 9.23432 26.1467L22.2817 26.1888C24.8805 26.1888 26.9893 24.1071 26.9893 21.5314C27 20.0069 26.2331 18.6402 25.0722 17.7886Z" fill="#FFEEDA"/>
<path d="M25.3915 21.6469C25.3382 23.2975 23.9643 24.6222 22.2814 24.6222L13.3027 24.5907C14.0163 23.7706 14.453 22.7088 14.453 21.5523C14.453 19.7335 13.356 18.4824 13.356 18.4824H22.2921C24.0069 18.4824 25.4021 19.8597 25.4021 21.5523L25.3915 21.6469Z" fill="#EBC28E"/>
<path d="M3.36568 10.1036C2.33254 9.13634 1.60828 7.88525 1.60828 6.40286V6.24516C1.69349 3.71144 3.80237 1.67185 6.36923 1.59826H22.7077C23.1337 1.61929 23.4746 1.91366 23.4746 2.34471V15.991C23.8473 16.0541 24.0284 16.1067 24.3905 16.2329C24.6781 16.338 25.0722 16.5588 25.0722 16.5588V2.34471C25.0509 1.05156 24.0071 0.0107422 22.697 0.0107422H6.35858C2.83314 0.063309 0 2.91243 0 6.40286C0 8.43194 0.937279 10.1666 2.47101 11.3862C2.57752 11.4703 2.67337 11.5754 2.9503 11.5754C3.42959 11.5754 3.77042 11.197 3.74911 10.7869C3.73846 10.44 3.58935 10.3138 3.36568 10.1036Z" fill="#101010"/>
<path d="M22.2835 16.8844H9.47044C8.60772 16.895 7.91541 17.5783 7.91541 18.4299V20.2487C7.93671 21.0898 8.66097 21.8047 9.5237 21.8047H10.4716V20.2487H9.5237V18.472C9.5237 18.472 9.75801 18.472 10.0456 18.472C11.6645 18.472 12.8574 19.9544 12.8574 21.5419C12.8574 22.9507 11.558 24.7484 9.38523 24.6013C7.45742 24.4751 6.41364 22.7824 6.41364 21.5419V6.12928C6.41364 5.4354 5.83849 4.86768 5.13553 4.86768H3.85742V6.44468H4.80535V21.5524C4.7521 24.6223 7.02073 26.1677 9.38523 26.1677L22.2941 26.2098C24.8929 26.2098 27.0018 24.1282 27.0018 21.5524C27.0018 18.9766 24.8823 16.8844 22.2835 16.8844ZM25.3935 21.647C25.3403 23.2976 23.9663 24.6223 22.2835 24.6223L13.3048 24.5907C14.0184 23.7707 14.4551 22.7088 14.4551 21.5524C14.4551 19.7336 13.358 18.4825 13.358 18.4825H22.2941C24.0089 18.4825 25.4042 19.8597 25.4042 21.5524L25.3935 21.647Z" fill="#101010"/>
<path d="M18.8303 6.72886H9.16992V5.15186H18.8303C19.267 5.15186 19.6291 5.4988 19.6291 5.94036C19.6291 6.3714 19.2776 6.72886 18.8303 6.72886Z" fill="#101010"/>
<path d="M18.8303 14.1507H9.16992V12.5737H18.8303C19.267 12.5737 19.6291 12.9207 19.6291 13.3622C19.6291 13.7933 19.2776 14.1507 18.8303 14.1507Z" fill="#101010"/>
<path d="M20.5344 10.4398H9.16992V8.86279H20.5238C20.9605 8.86279 21.3226 9.20973 21.3226 9.65129C21.3332 10.0823 20.9711 10.4398 20.5344 10.4398Z" fill="#101010"/>
</svg>
